X:1
T:IL TESTAMENTO DEL CAPITANO
T:Canto Alpino
T:anonimo
L:1/8
M:2/4
K:F
V:1 treble nm="Voice" snm="Vo."
V:1
 z[Q:1/4=70] CDE | F2 F>E | D2 C2 | (FCA,C) | F4- | !breath!F>C FG | [FA]2 [FA]2 | [Ac]2 [GB][FA] | %8
w: Il ca\- pi\-|tan del\- la|com\- pa\-|gni _ _ _|a|* el~ l'è fe\-|ri\- to|sta per mo\-|
 [EG]4- | !breath![EG]2 z2 |: [EG]- [EG][EG][FA] | [GB]2 [GB]2 | [Bd]2 [Ac][GB] | [Ac]2 [FA]2 | %14
w: rir.||E * man\- da\-a-|di\- re|ai suoi Al\-|pi\- ni|
 [Ac]2 [GB][FA] | [Ac][GB] [EG]2 | ([Ac]>[GB]) [FA][EG] | [FA]4- | [FA]2 z2 :| z CDE | F2 F>E | %21
w: per\- ché lo|ven\- ga\- no|a * ri\- tro\-|var.||i suoi al|pi ni ghe|
 D2 C2 | (FCA,C) | F4- | !breath!F>C FG | [FA]2 [FA]2 | [Ac]2 [GB][FA] | [EG]4- | [EG]2 z2 |: %29
w: man da|di _ _ _|re|_ ch no g'ha|sca rpe|per cam mi|nar||
 [EG]- [EG][EG][FA] | [GB]2 [GB]2 | [Bd]2 [Ac][GB] | [Ac]2 [FA]2 | [Ac]2 [GB][FA] | %34
w: o _ con le|scar pe|o sen za|scar pe|i miei~~~ al|
 [Ac][GB] [EG]2 | ([Ac]>[GB]) [FA][EG] | [FA]4- | [FA]2 z2 :| z CDE | F2 F>E | D2 C2 | (FCA,C) | %42
w: pi _ ni|li _ vog io|qua!||co sa co|ma nda sior|ca pi|ta _ _ _|
 F4- | !breath!F>C FG | [FA]2 [FA]2 | [Ac]2 [GB][FA] | [E-G]4 | [EG]2 z2 |: [EG]- [EG][EG][FA] | %49
w: no|_ che~ noi a|des so|se mo arri|va||E _ io co|
 [GB]2 [GB]2 | [Bd]2 [Ac][GB] | [Ac]2 [FA]2 | [Ac]2 [GB][FA] | [Ac][GB] [EG]2 | %54
w: man do|che il~~ mio|cor po|in cin~ que|pe _ zi|
 ([Ac]>[GB]) [FA][EG] | [FA]4- | [FA]2 z2 :| z CDE | F2 F>E | D2 C2 | (FCA,C) | F4- | %62
w: si ~~~~~~~~ a ta|glia||Il pri mo|pe zo al|la mia|pa _ _ _|tria|
 !breath!F>C FG | [FA]2 [FA]2 | [Ac]2 [GB][FA] | [EG]4- | !breath![EG]2 z2 |: [EG]- [EG][EG][FA] | %68
w: _ se con do|pez zo|al bat ta|glion||il _ ter zo|
 [GB]2 [GB]2 | [Bd]2 [Ac][GB] | [Ac]2 [FA]2 | [Ac]2 [GB][FA] | [Ac][GB] [EG]2 | %73
w: pez zo|al la mia|ma mma|che si~~~~ ri|co _ rdi|
 ([Ac]>[GB]) [FA][EG] | [FA]4- | [FA]2 z2 :| z CDE | F2 F>E | D2 C2 | (FCA,C) | F4- | %81
w: de ~~~~~~~ suo figli|uol||Il quar to|pe zo al|la mia|be _ _ _|lla|
 !breath!F>C FG | [FA]2 [FA]2 | [Ac]2 [GB][FA] | [EG]4- | !breath![EG]2 z2 |: [EG]- [EG][EG][FA] | %87
w: _ che si ri|cor di|del suo primo|amor||il _ quin to|
 [GB]2 [GB]2 | [Bd]2 [Ac][GB] | [Ac]2 [FA]2 | [Ac]2 [GB][FA] | [Ac][GB] [EG]2 | %92
w: pez zo|al le mon|ta gne|che lo fio|ris ca no|
 ([Ac]>[GB]) [FA][EG] | [FA]4- | [FA]2 z2 :| %95
w: di _ ro se~e|fior||

